src/images/logo-black.svg

<?xml version="1.0" encoding="UTF-8"?>
<svg width="111px" height="42px" viewBox="0 0 111 42" version="1.1" xmlns="http://www.w3.org/2000/svg" xmlns:xlink="http://www.w3.org/1999/xlink">
    <!-- Generator: Sketch 50.2 (55047) - http://www.bohemiancoding.com/sketch -->
    <title>Untitled</title>
    <desc>Created with Sketch.</desc>
    <defs></defs>
    <g id="Page-1" stroke="none" stroke-width="1" fill="none" fill-rule="evenodd">
        <g id="logo-black" fill="#000000">
            <path d="M7.306,32.783 C5.46648721,32.8458691 3.67423768,32.1931318 2.306,30.962 C0.833194092,29.3936731 0.0554868284,27.2974329 0.149,25.148 L0.149,8.635 C0.0557155448,6.48560304 0.833390913,4.38944884 2.306,2.821 C3.67452091,1.59023417 5.46648374,0.937242912 7.306,0.999 C9.14874659,0.916590665 10.9482931,1.57234541 12.306,2.821 C13.7975916,4.37762377 14.5783863,6.4821858 14.463,8.635 L14.463,10.917 L9.718,10.917 L9.718,8.635 C9.81243312,7.84588898 9.59737428,7.0508881 9.118,6.417 C8.60387917,6.01505978 7.95592911,5.82410761 7.306,5.883 C6.66977526,5.82854869 6.03683034,6.0196129 5.537,6.417 C5.03616435,7.04150348 4.80348356,7.83916343 4.89,8.635 L4.89,25.148 C4.80326096,25.9438561 5.03596613,26.7415997 5.537,27.366 C6.03697677,27.7630302 6.66990714,27.9537322 7.306,27.899 C7.95577815,27.9579707 8.60364051,27.7674019 9.118,27.366 C9.59766083,26.7322524 9.81275144,25.9371341 9.718,25.148 L9.718,19.333 L7.242,19.333 L7.242,14.45 L14.463,14.45 L14.463,25.15 C14.5783863,27.3028142 13.7975916,29.4073762 12.306,30.964 C10.9485449,32.2129675 9.14872573,32.8684616 7.306,32.785 L7.306,32.783 Z M24.013,32.785 C22.17024,32.8686854 20.3703374,32.2131609 19.013,30.964 C17.5214084,29.4073762 16.7406137,27.3028142 16.856,25.15 L16.856,1.355 L21.601,1.355 L21.601,25.148 C21.5057165,25.9371726 21.7208602,26.7324874 22.201,27.366 C22.7152191,27.7676752 23.3631919,27.9582765 24.013,27.899 C24.6487579,27.9534714 25.2812823,27.7627839 25.781,27.366 C26.2824312,26.7418066 26.5151853,25.9438953 26.428,25.148 L26.428,1.355 L31.173,1.355 L31.173,25.148 C31.2663244,27.2972183 30.4890486,29.3932674 29.017,30.962 C27.6486528,32.1929495 25.8564794,32.8456591 24.017,32.783 L24.013,32.785 Z M38.232,27.545 L40.648,27.545 C41.2914585,27.6106822 41.9365565,27.4369472 42.46,27.057 C42.9371357,26.4731259 43.1540027,25.7191517 43.06,24.971 L43.06,8.99 C43.1363501,8.19493167 42.9043735,7.40091284 42.412,6.772 C41.912136,6.37557297 41.2796261,6.18524761 40.644,6.24 L38.228,6.24 L38.228,27.546 L38.232,27.545 Z M40.648,32.428 L33.487,32.428 L33.487,1.355 L40.648,1.355 C42.4967133,1.28369328 44.2971305,1.95488883 45.648,3.219 C47.1526354,4.74947072 47.9366886,6.84682201 47.805,8.989 L47.805,24.97 C47.8230231,26.0716475 47.6477007,27.1679202 47.287,28.209 C46.9263165,29.1578843 46.3509799,30.0104502 45.606,30.7 C44.2411828,31.9016948 42.4611747,32.5231369 40.645,32.432 L40.648,32.428 Z M62.023,6.243 L54.936,6.243 L54.936,14.055 L59.663,14.055 L59.663,18.937 L54.936,18.937 L54.936,32.432 L50.191,32.432 L50.191,1.355 L62.019,1.355 L62.019,6.239 L62.023,6.243 Z M70.461,5.887 C69.8246786,5.83161896 69.1913964,6.02278501 68.692,6.421 C68.1911643,7.04550348 67.9584836,7.84316343 68.045,8.639 L68.045,25.152 C67.958261,25.9478561 68.1909661,26.7455997 68.692,27.37 C69.1916883,27.7675814 69.8248431,27.958351 70.461,27.903 C71.0978329,27.968238 71.7343373,27.7763507 72.229,27.37 C72.7400048,26.7508347 72.9739608,25.9488031 72.876,25.152 L72.876,8.635 C72.9736008,7.83822603 72.7396855,7.03633427 72.229,6.417 C71.7344907,6.01029178 71.0979703,5.81803958 70.461,5.883 L70.461,5.887 Z M70.461,32.783 C68.61824,32.8666854 66.8183374,32.2111609 65.461,30.962 C63.9694084,29.4053762 63.1886137,27.3008142 63.304,25.148 L63.304,8.635 C63.1886137,6.4821858 63.9694084,4.37762377 65.461,2.821 C68.3544703,0.391992359 72.5745297,0.391992359 75.468,2.821 C76.9595916,4.37762377 77.7403863,6.4821858 77.625,8.635 L77.625,25.148 C77.7403863,27.3008142 76.9595916,29.4053762 75.468,30.962 C74.1107215,32.2112576 72.3107771,32.8667973 70.468,32.783 L70.461,32.783 Z M87.129,5.883 C86.4930028,5.8277773 85.8600894,6.01894004 85.361,6.417 C84.8593118,7.04109357 84.6262057,7.83897825 84.713,8.635 L84.713,25.148 C84.626094,25.9440316 84.8592123,26.7419583 85.361,27.366 C85.8603814,27.7634264 86.4931672,27.9541927 87.129,27.899 C87.7661663,27.9645119 88.4030837,27.7726086 88.898,27.366 C89.4085793,26.7466095 89.6424809,25.9447642 89.545,25.148 L89.545,8.635 C89.642122,7.83826495 89.408261,7.03655885 88.898,6.417 C88.4032372,6.01003387 87.7663038,5.81776566 87.129,5.883 Z M87.129,32.783 C85.2862743,32.8664616 83.4864551,32.2109675 82.129,30.962 C80.6374084,29.4053762 79.8566137,27.3008142 79.972,25.148 L79.972,8.635 C79.8566137,6.4821858 80.6374084,4.37762377 82.129,2.821 C85.0229408,0.392247659 89.2430592,0.392247659 92.137,2.821 C93.6285916,4.37762377 94.4093863,6.4821858 94.294,8.635 L94.294,25.148 C94.4093863,27.3008142 93.6285916,29.4053762 92.137,30.962 C90.7795449,32.2109675 88.9797257,32.8664616 87.137,32.783 L87.129,32.783 Z M101.349,27.545 L103.764,27.545 C104.407474,27.6108728 105.052639,27.4371197 105.576,27.057 C106.053136,26.4731259 106.270003,25.7191517 106.176,24.971 L106.176,8.99 C106.252114,8.19511242 106.020554,7.40129635 105.529,6.772 C105.028877,6.37532665 104.395961,6.18498678 103.76,6.24 L101.345,6.24 L101.345,27.546 L101.349,27.545 Z M103.764,32.428 L96.603,32.428 L96.603,1.355 L103.764,1.355 C105.612749,1.2834687 107.41325,1.95469546 108.764,3.219 C110.263864,4.75200452 111.04244,6.84965475 110.906,8.99 L110.906,24.971 C110.924023,26.0726475 110.748701,27.1689202 110.388,28.21 C110.026891,29.1586227 109.451215,30.0108423 108.706,30.7 C107.341292,31.9018812 105.561205,32.5233506 103.745,32.432 L103.764,32.428 Z M110.906,42 L0.006,42 L0.006,37.152 L110.906,37.152 L110.906,42 Z" id="Shape"></path>
        </g>
    </g>
</svg>

<svg width="111" height="42" xmlns="http://www.w3.org/2000/svg"><path d="M7.306 32.783a7.112 7.112 0 0 1-5-1.821 7.986 7.986 0 0 1-2.157-5.814V8.635a7.988 7.988 0 0 1 2.157-5.814 7.12 7.12 0 0 1 5-1.822 6.929 6.929 0 0 1 5 1.822 7.8 7.8 0 0 1 2.157 5.814v2.282H9.718V8.635a3.072 3.072 0 0 0-.6-2.218 2.566 2.566 0 0 0-1.812-.534 2.5 2.5 0 0 0-1.769.534 3.023 3.023 0 0 0-.647 2.218v16.513a3.021 3.021 0 0 0 .647 2.218 2.5 2.5 0 0 0 1.769.533 2.568 2.568 0 0 0 1.812-.533c.48-.634.695-1.429.6-2.218v-5.815H7.242V14.45h7.221v10.7a7.8 7.8 0 0 1-2.157 5.814 6.922 6.922 0 0 1-5 1.821v-.002zm16.707.002a6.92 6.92 0 0 1-5-1.821 7.8 7.8 0 0 1-2.157-5.814V1.355h4.745v23.793c-.095.79.12 1.584.6 2.218a2.565 2.565 0 0 0 1.812.533 2.5 2.5 0 0 0 1.768-.533 3.017 3.017 0 0 0 .647-2.218V1.355h4.745v23.793a7.99 7.99 0 0 1-2.156 5.814 7.114 7.114 0 0 1-5 1.821l-.004.002zm14.219-5.24h2.416a2.63 2.63 0 0 0 1.812-.488 2.754 2.754 0 0 0 .6-2.086V8.99a3.115 3.115 0 0 0-.648-2.218 2.5 2.5 0 0 0-1.768-.532h-2.416v21.306l.004-.001zm2.416 4.883h-7.161V1.355h7.161c1.849-.071 3.65.6 5 1.864a7.568 7.568 0 0 1 2.157 5.77V24.97a9.423 9.423 0 0 1-.518 3.239 6.58 6.58 0 0 1-1.681 2.491 6.978 6.978 0 0 1-4.961 1.732l.003-.004zM62.023 6.243h-7.087v7.812h4.727v4.882h-4.727v13.495h-4.745V1.355h11.828v4.884l.004.004zm8.438-.356a2.491 2.491 0 0 0-1.769.534 3.023 3.023 0 0 0-.647 2.218v16.513a3.021 3.021 0 0 0 .647 2.218c.5.398 1.133.588 1.769.533a2.4 2.4 0 0 0 1.768-.533c.511-.62.745-1.421.647-2.218V8.635a2.927 2.927 0 0 0-.647-2.218 2.4 2.4 0 0 0-1.768-.534v.004zm0 26.896a6.92 6.92 0 0 1-5-1.821 7.8 7.8 0 0 1-2.157-5.814V8.635a7.8 7.8 0 0 1 2.157-5.814 7.782 7.782 0 0 1 10.007 0 7.8 7.8 0 0 1 2.157 5.814v16.513a7.8 7.8 0 0 1-2.157 5.814 6.919 6.919 0 0 1-5 1.821h-.007zm16.668-26.9a2.49 2.49 0 0 0-1.768.534 3.018 3.018 0 0 0-.648 2.218v16.513a3.017 3.017 0 0 0 .648 2.218c.5.397 1.132.588 1.768.533a2.4 2.4 0 0 0 1.769-.533c.51-.62.744-1.421.647-2.218V8.635a2.931 2.931 0 0 0-.647-2.218 2.4 2.4 0 0 0-1.769-.534zm0 26.9a6.922 6.922 0 0 1-5-1.821 7.8 7.8 0 0 1-2.157-5.814V8.635a7.8 7.8 0 0 1 2.157-5.814 7.784 7.784 0 0 1 10.008 0 7.8 7.8 0 0 1 2.157 5.814v16.513a7.8 7.8 0 0 1-2.157 5.814 6.922 6.922 0 0 1-5 1.821h-.008zm14.22-5.238h2.415a2.628 2.628 0 0 0 1.812-.488 2.754 2.754 0 0 0 .6-2.086V8.99a3.12 3.12 0 0 0-.647-2.218 2.5 2.5 0 0 0-1.769-.532h-2.415v21.306l.004-.001zm2.415 4.883h-7.161V1.355h7.161c1.849-.072 3.65.6 5 1.864a7.564 7.564 0 0 1 2.142 5.771v15.981a9.423 9.423 0 0 1-.518 3.239 6.58 6.58 0 0 1-1.682 2.49 6.976 6.976 0 0 1-4.961 1.732l.019-.004zM110.906 42H.006v-4.848h110.9V42z" fill-rule="evenodd"/></svg>
